theme/icons/format-text.svg

<svg fill="none" height="24" viewBox="0 0 24 24" width="24" xmlns="http://www.w3.org/2000/svg"><g fill="#f4f4f7"><path d="m6.5 3h-3.5v3.5h1v-2.5h2.5z"/><path d="m8.5 4v-1h2.5v1z"/><path d="m13 4h2.5v-1h-2.5z"/><path d="m17.5 3v1h2.5v2.5h1v-3.5z"/><path d="m21 8.5h-1v2.5h1z"/><path d="m21 13h-1v2.5h1z"/><path d="m21 17.5h-1v2.5h-2.5v1h3.5z"/><path d="m15.5 21v-1h-2.5v1z"/><path d="m11 21v-1h-2.5v1z"/><path d="m6.5 21v-1h-2.5v-2.5h-1v3.5z"/><path d="m3 15.5h1v-2.5h-1z"/><path d="m3 11h1v-2.5h-1z"/><path d="m11 9.5h-4v-2h10v2h-4v7h-2z"/></g></svg>

<svg fill="none" height="24" width="24" xmlns="http://www.w3.org/2000/svg">
    <path d="M6.5 3H3v3.5h1V4h2.5zm2 1V3H11v1zM13 4h2.5V3H13zm4.5-1v1H20v2.5h1V3zM21 8.5h-1V11h1zm0 4.5h-1v2.5h1zm0 4.5h-1V20h-2.5v1H21zM15.5 21v-1H13v1zM11 21v-1H8.5v1zm-4.5 0v-1H4v-2.5H3V21zM3 15.5h1V13H3zM3 11h1V8.5H3zm8-1.5H7v-2h10v2h-4v7h-2z" fill="#f4f4f7"/>
</svg>
